X:243
T:Jerusalem's Ridge
C:Arr. Glen Tolbert
N:Arrangement commissioned for Deanna Rowell
R:bluegrass
L:1/8
Q:1/4=240
M:4/4
K:C
z8 | A,E Ac e2 cB | "Am"AB cd e2 ef | ed ce dc AG | AB cd e2 ef | "E"ed c^G "Am"A2 =G^G | 
"Am"AB cd e2 ef | ed ce dc AG | AB cd eg ag | "E"ee d^c "Am"=cA [eA][eA] | AB cd e2 ef | 
ed ce dc AG | AB cd eg ag | "E"ee dc "Am"A2 cB | AB cd e2 ef | ed ce dc AG | AB cd eg ag | 
"E"e^d =dc "Am"A4 | {d}e2 a2 a2 ag | eg ab c'b ag | ea2e a2 ab | c'2 {c'}e'2 "E"e'2 e'e' | 
"Am"[a2e2] a2 a2 ab | c'a bg ag ed | e2 ef ed cd | "E"ed cB A2 e2 | {d}e2 aa a2 ag | 
eg ab c'b ag | eg ab a2 ab | "E"c'2 {c'}e'e' e'2 ee | "Am"[a2e2] a2 a2 ab | c'a bg ag ed | 
e2 ef ed cd | "E"ee dc "Am"A2 ga | {d}e2 ee e2 fe | "D"d6 ed | "C"c2 cc "E"Bc BG | 
"Am"A2 [eA][eA] A2 ga | e6 {f}ee | "D"d6 ed | "C"c2 cc "E"Bc BG | "Am"A2 [eA][eA] A4 | 
{d}e2 a2 a2 ag | eg ab c'2 c'c' | "C"eg2a g2 ^de | ga gf ed c2 | "Am"eg ab ag ab | 
c'a bg ag ed | e2 ef ed cd | "E"ed cB "Am"A3d | "Am"DE [eA][eA] A2 GG | "E"EE D4 zC | 
"Am"A,2 B,C D^D {D}EG | A2 [eA][eA] A2 ee | {d}e2 a2 a2 aa | a2 b2 c'2 c'c' | 
"C"ef ga g2 ef | ga gf ed c2 | "Am"eg ab ag ab | c'a bg ag ed | e2 ef ed cd | 
"E"ee dc "Am"A2 [eA][eA] | E2 A2 E2 DD | "E"ED CB, "Am"A,2 AG | DE DC A,4 | z8 | 


